!!!COM: Bach, Johann Sebastian
!!!CDT: 1685/3//-1750/7/28/
!!!OTL@@DE: Hilf, Herr Jesu, lass gelingen
!!!AGN: 4-Part Chorale
!!!SCT: BH 368
!!!SCT: BWV 248
**harm	**root	**kern	**kern	**kern	**kern
*	*Iorgan	*Iorgan	*Iorgan	*Iorgan	*Iorgan
!	!	!bass	!tenor	!alto	!soprno
*M3/4	*M3/4	*M3/4	*M3/4	*M3/4	*M3/4
*MM60	*MM60	*MM60	*MM60	*MM60	*MM60
*k[b-e-a-]	*k[b-e-a-]	*k[b-e-a-]	*k[b-e-a-]	*k[b-e-a-]	*k[b-e-a-]
*E-:	*E-:	*E-:	*E-:	*E-:	*E-:
*>[A,A,B]	*>[A,A,B]	*>[A,A,B]	*>[A,A,B]	*>[A,A,B]	*>[A,A,B]
*>A	*>A	*>A	*>A	*>A	*>A
=1-	=1-	=1-	=1-	=1-	=1-
I	4FF	8E-	4e-	4g	4b-
.	.	8F	.	.	.
Ib	2FF	4G	2B-	2e-	2g
.	.	4E-	.	.	.
=2	=2	=2	=2	=2	=2
V	2CC	2BB-	4.B-	4e-	2f
.	.	.	.	4d	.
.	.	.	8A-	.	.
vi	4DD	4C	4G	4e-	4e-
=3	=3	=3	=3	=3	=3
ii	4GG	8F	2A-	4c	4a-
.	.	8E-	.	.	.
v7b	4CC	4D-	.	4f	4.b-
I	4FF	4E-	8G	4e-	.
.	.	.	16A-	.	16cc
.	.	.	16B-	.	16dd-
=4	=4	=4	=4	=4	=4
IV	2.BB-	8AA-	4B-	2.e-	2.cc
.	.	8BB-	.	.	.
.	.	4C	8A-	.	.
.	.	.	8G	.	.
.	.	4AA-	4A-	.	.
=5	=5	=5	=5	=5	=5
I;	2.FF;	2.E-;	2.G;	2.e-;	2.b-;
=6	=6	=6	=6	=6	=6
vi	4DD	4C	4e-	4g	4cc
ii	2GG	4F	2c	2f	2a-
.	.	4E-	.	.	.
=7	=7	=7	=7	=7	=7
Vb	4CC	4D	8B-	4f	2b-
.	.	.	8A-	.	.
I	4FF	8E-	4G	4e-	.
.	.	8D	.	.	.
vi	4DD	8C	4G	4e-	4e-
.	.	8BB-	.	.	.
=8	=8	=8	=8	=8	=8
IVb	8BB-	8C	8c	8e-	4a-
V7b	8CC	8D	8B-	8f	.
I	2FF	4E-	2B-	4f	2g
.	.	4E-	.	4e-	.
=9	=9	=9	=9	=9	=9
V;	2.CC;	2.BB-;	2.B-;	2.d;	2.f;
*>B	*>B	*>B	*>B	*>B	*>B
!!linebreak: 2
=10:|!	=10:|!	=10:|!	=10:|!	=10:|!	=10:|!
V	4CC	8BB-	2B-	8f	4dd
.	.	8C	.	8e-	.
Vb	4CC	4D	.	4f	2b-
V	4CC	4BB-	4d	4f	.
=11	=11	=11	=11	=11	=11
I	2FF	8E-	2B-	4f	2g
.	.	8D	.	.	.
.	.	4E-	.	4e-	.
IV	4BB-	4A-	[4A-	4e-	4cc
=12	=12	=12	=12	=12	=12
viioD7	4EE	4D	4A-]	4f	4b
vib	4DD	4E-	4G	4g	4.cc
IVb	8BB-	4C	8c	8a-	.
vi7	8DD	.	8B-	8g	16dd
.	.	.	.	.	16ee-
=13	=13	=13	=13	=13	=13
vii7d	4EE	4C	4A-	8f	2.dd
.	.	.	.	8e-	.
V7d/vi	4.AA	8BB	8G	4.f	.
.	.	8AA	8F	.	.
.	.	4BB	4G	.	.
Vb/vi	8AA	.	.	8d	.
=14	=14	=14	=14	=14	=14
vi;	2.DD;	2.C;	2.G;	2.e-;	2.g;
=15	=15	=15	=15	=15	=15
IV	4BB-	8A-	4.A-	4e-	4cc
.	.	8G	.	.	.
viib	4EE	4F	.	4f	4dd
.	.	.	8F	.	.
I	4FF	4E-	4B-	4g	4ee-
=16	=16	=16	=16	=16	=16
Vb	4CC	8D	2B-	8f	4ff
.	.	8C	.	8e-	.
Vb	4CC	4D	.	4f	4b-
V7	4CC	4BB-	4F	4d	4a-
=17	=17	=17	=17	=17	=17
I	4FF	4E-	2E-	4B-	4g
IV	4BB-	2AA-	.	4A-	4cc
IV	4BB-	.	4c	4e-	4a-
=18	=18	=18	=18	=18	=18
V	4CC	8BB-	4F	4e-	2.f
.	.	8AA-	.	.	.
V	2CC	2BB-	4B-	8d	.
.	.	.	.	8c	.
.	.	.	4A-	4d	.
=19	=19	=19	=19	=19	=19
I;	2.FF;	2.EE-;	2.G;	2.B-;	2.e-;
==	==	==	==	==	==
*-	*-	*-	*-	*-	*-
!!chor2scor: -l 2 -o %b.pmx
!!!YEC: Copyright 1994 by David Huron
!!!YEC: Changes/Additions 2001 by Craig Stuart Sapp
!!!YEN: United States of America
!!!SMA: 371 Bach Chorales, edited by Ludwig Erk, C.F. Peters
!!!PDT: 1850, 1865
!!!ONB: Harmony and Root analysis done manually
